Papirus-GTK/24x24/apps/tomahawk.svg

<svg height="24" width="24" xmlns="http://www.w3.org/2000/svg" xmlns:xlink="http://www.w3.org/1999/xlink"><clipPath id="a"><circle cx="286" cy="26" r="10"/></clipPath><path d="m11.999875 2a10 10 0 0 0 -10 10 10 10 0 0 0  10 10 10 10 0 0 0  10-10 10 10 0 0 0 -10-10z" fill="#e74c3c"/><path d="m11.999999 4.5c4.418278.0000006 7.999999 3.5817224 7.999999 8-.003 2.51468-.988252 4.881593-2.999998 6.3904v-9.5904c0-.5909333-.675735-.8-1.266668-.8h-.533333c-.590933 0-1.230494.2098541-1.199999.8v2.580267l-2.802134-1.7104-3.2010675-1.8656003c-.0773753-.0447812-.1646833-.0691761-.2538667-.0709334-.2977779-.0067153-.7427987.2349373-.7429318.5354667v7.461333c-.000458.41286.6425253.67112.9967985.464534l3.2010675-1.8656 2.802134-1.709334v6.846934c0 .08107.04493.158933.062.234133-.703485.197999-1.331181.298668-2.061998.2992-4.4182782 0-8.0000005-3.581722-8.0000005-8 0-4.4182782 3.5817223-8.0000003 7.9999975-8z" opacity=".2"/><path d="m11.999999 4c4.418278.0000006 7.999999 3.5817224 7.999999 8-.003 2.51468-.988252 4.881593-2.999998 6.3904v-9.5904c0-.5909333-.675735-.8-1.266668-.8h-.533333c-.590933 0-1.230494.2098541-1.199999.8v2.580267l-2.802134-1.7104003-3.2010675-1.8656c-.0773753-.0447812-.1646833-.0691761-.2538667-.0709334-.2977779-.0067153-.7427987.2349373-.7429318.5354667v7.461333c-.000458.41286.6425253.67112.9967985.464534l3.2010675-1.8656 2.802134-1.709334v6.846934c0 .08107.04493.158933.062.234133-.703485.197999-1.331181.298668-2.061998.2992-4.4182782 0-8.0000005-3.581722-8.0000005-8 0-4.4182782 3.5817223-8.0000003 7.9999975-8z" fill="#fff"/><circle clip-path="url(#a)" cx="286" cy="26" opacity="0" r="10" stroke-width=".45455" transform="translate(-274.00013 -14)"/><circle clip-path="url(#a)" cx="286" cy="26" opacity="0" r="10" stroke-width=".90908998" transform="translate(-274.00013 -14)"/></svg>

<?xml version="1.0" encoding="UTF-8" standalone="no"?>
<!-- Created with Inkscape (http://www.inkscape.org/) -->

<svg
   xmlns:dc="http://purl.org/dc/elements/1.1/"
   xmlns:cc="http://creativecommons.org/ns#"
   xmlns:rdf="http://www.w3.org/1999/02/22-rdf-syntax-ns#"
   xmlns:svg="http://www.w3.org/2000/svg"
   xmlns="http://www.w3.org/2000/svg"
   xmlns:sodipodi="http://sodipodi.sourceforge.net/DTD/sodipodi-0.dtd"
   xmlns:inkscape="http://www.inkscape.org/namespaces/inkscape"
   id="svg2817"
   height="24"
   width="24"
   version="1.0"
   inkscape:version="0.91 r13725"
   sodipodi:docname="tomahawk.svg">
  <sodipodi:namedview
     pagecolor="#ffffff"
     bordercolor="#666666"
     borderopacity="1"
     objecttolerance="10"
     gridtolerance="10"
     guidetolerance="10"
     inkscape:pageopacity="0"
     inkscape:pageshadow="2"
     inkscape:window-width="1600"
     inkscape:window-height="845"
     id="namedview12"
     showgrid="false"
     inkscape:zoom="1"
     inkscape:cx="12"
     inkscape:cy="9.8569723"
     inkscape:window-x="0"
     inkscape:window-y="32"
     inkscape:window-maximized="1"
     inkscape:current-layer="svg2817" />
  <metadata
     id="metadata57">
    <rdf:RDF>
      <cc:Work
         rdf:about="">
        <dc:format>image/svg+xml</dc:format>
        <dc:type
           rdf:resource="http://purl.org/dc/dcmitype/StillImage" />
        <dc:title />
      </cc:Work>
    </rdf:RDF>
  </metadata>
  <defs
     id="defs2819">
    <clipPath
       id="clipPath4186"
       clipPathUnits="userSpaceOnUse">
      <circle
         id="path4188"
         style="color:#000000"
         cx="286"
         cy="26"
         r="10"
         fill="url(#linearGradient4190)" />
    </clipPath>
  </defs>
  <path
     style="color:#000000;fill:#e74c3c"
     d="m 11.999875,2 a 10,10 0 0 0 -10,10 10,10 0 0 0 10,10 10,10 0 0 0 10,-10 10,10 0 0 0 -10,-10 z"
     id="path4154" />
  <path
     sodipodi:nodetypes="sccsssscccccccccsccss"
     inkscape:connector-curvature="0"
     id="path4156"
     d="m 11.999999,4.5 c 4.418278,6e-7 7.999999,3.5817224 7.999999,8 -0.003,2.51468 -0.988252,4.881593 -2.999998,6.3904 L 17,9.3 C 17,8.7090667 16.324265,8.5 15.733332,8.5 l -0.533333,0 C 14.609066,8.5 13.969505,8.7098541 14,9.3 l 0,2.580267 -2.802134,-1.7104 L 7.9967985,8.3042667 C 7.9194232,8.2594855 7.8321152,8.2350906 7.7429318,8.2333333 7.4451539,8.226618 7.0001331,8.4682706 7,8.7688 l 0,7.461333 c -4.58e-4,0.41286 0.6425253,0.67112 0.9967985,0.464534 L 11.197866,14.829067 14,13.119733 l 0,6.846934 c 0,0.08107 0.04493,0.158933 0.062,0.234133 -0.703485,0.197999 -1.331181,0.298668 -2.061998,0.2992 -4.4182782,0 -8.0000005,-3.581722 -8.0000005,-8 0,-4.4182782 3.5817223,-8.0000003 7.9999975,-8 z"
     style="color:#000000;opacity:0.2;fill:#000000;fill-opacity:1" />
  <path
     style="color:#000000;fill:#ffffff;fill-opacity:1"
     d="m 11.999999,4 c 4.418278,6e-7 7.999999,3.5817224 7.999999,8 -0.003,2.51468 -0.988252,4.881593 -2.999998,6.3904 L 17,8.8 C 17,8.2090667 16.324265,8 15.733332,8 L 15.199999,8 C 14.609066,8 13.969505,8.2098541 14,8.8 l 0,2.580267 -2.802134,-1.7104003 -3.2010675,-1.8656 C 7.9194232,7.7594855 7.8321152,7.7350906 7.7429318,7.7333333 7.4451539,7.726618 7.0001331,7.9682706 7,8.2688 l 0,7.461333 c -4.58e-4,0.41286 0.6425253,0.67112 0.9967985,0.464534 L 11.197866,14.329067 14,12.619733 l 0,6.846934 c 0,0.08107 0.04493,0.158933 0.062,0.234133 -0.703485,0.197999 -1.331181,0.298668 -2.061998,0.2992 -4.4182782,0 -8.0000005,-3.581722 -8.0000005,-8 0,-4.4182782 3.5817223,-8.0000003 7.9999975,-8 z"
     id="path4230"
     inkscape:connector-curvature="0"
     sodipodi:nodetypes="sccsssscccccccccsccss" />
  <circle
     id="path4240"
     style="color:#000000;opacity:0;stroke-width:0.45455"
     clip-path="url(#clipPath4186)"
     cx="286"
     transform="translate(-274.00013,-14)"
     cy="26"
     r="10" />
  <circle
     id="path4242"
     style="color:#000000;opacity:0;stroke-width:0.90908998"
     clip-path="url(#clipPath4186)"
     cx="286"
     transform="translate(-274.00013,-14)"
     cy="26"
     r="10" />
</svg>
